X: 1027
T: Hicaz Taksim
C: Tanburî Cemil Bey
O: Turkey
F: http://compmusic.upf.edu/node/140
N: hicaz--taksim--serbest----tanburi_cemil_bey
N: makam= hicaz
N: form= taksim
N: usul= serbest = 0/1
M: 0/1
L: 1/16
K: C _7/8B ^f ^c 
Q: 1/4=66
%%MIDI tuningsystem comma53
G3/2 A/ G2 A4 A4 A4  | A2 A4 A4 z4 z4 B2 B2 c2 d2 e2 e2 d2  | \
w:   |   | 
c2 B2 c2 d2 c B A3 B A2  | 
w:   | 
G2 A2 B2 c4 B2 A2 z2  | A4 e3 e2 d4 d2 c3 c2 B3 B3 A3 A3  | \
w:   |   | 
G3 G A B c d e d c B A A4 A4 A4 z4 z4 z4 z4 z4 A A d2 c B z A B c2 B A G2 z4  | 
w:   | 
z4 z4 c d e2 d c B c  | d e c B A G A A B c c B B A B B  | 
w:   |   | 
B B B B B A B B A B2 A2 B2 A2 B2 A2 c d e2 d2 f2 e d c  | 
w:   | 
B c d e2 d c B B B3/2 B G2 A2 G2 A2 B2 A2 d2 d c B2 c B A A4 A2 A4 A8 z8 z4 z4 e e e c d e f g g f e d c B A4 z4 z4 c d e d =f8 e d c c c c d e2 d c B A2 c d ^f _e e4 e d3/2 d c3/2 c B3/2 B A3/2 G2 A2 B2 A2 d d c d d2 c B A B c c c A B c c B A2 =e2 e d c2 B B B3/2 A A4 A4 G2 A4 z4 z4 z4 z4 A A B  | 
w:   | 
c d e f g a b a g f e d c d e2  | \
w:   | 
f2 g2 e2 f2 g2 f/ g/ f/ e/ f2 g2  | 
w:   | 
f e d2 e3 d2 e2 f2 g2 a2 b b a g2 f2 e2 f4 e2  | \
w:   | 
f2 g2 a3 g f e d2 e/ f/ e/ g16 c/ a16 c d  | 
w:   | 
e/ f/ e/ d/ c d g4 =f4 e4  | g2 a2 =f3/2 e/ d2 e4 e4  | \
w:   |   | 
z4 z4 z4 z4  | A4 e2 d2 e4 e2 e2  | 
w:  |   | 
e4 e4 z4 z4  | e2 ^1/4f e f g e2 z4 z4  | \
w:   |   | 
^1/4f2 g f g a f2 z4 e2 f e  | 
w:   | 
^1/4f g e2 z4 e2 a g z2 g ^f3 f e3 e d3 z4 z4 z4 d e f g2 f e6 z2 f e3 e3 g3/2 a3 g f3 e f3 g2 a4 b3 a g2 f2 e f4 e a4 a ^g ^1/4f2 f f f e2 z4 z4 z4 e3/2 d/ c d e ^f =g a b =c' a2 b a g f g a b g2 b a a4 a4 a4 a8 a8 a8 a8 A8 a8 d e f g a b ^c' d' e' z d' c' b a g f e2 f2 g2 a2 f2 e2 g z f z e z g z f z e z a4 g2 f3/2 e/ c2 e2 d2 e2 f2 e2 e2 g2 a2 g2 f3/2 e/ d2 C D E F G A A G F E D C D4 c d e =f d f e d d c d3 C3 D E3 D D D D C D4 c d e ^f g g f e2 d4 G G F E2 D4 D2 =f2 f f3/2 e d3 d c3 B A3 c2 d2 B A3 e e3 d c B c2 c4 B d c2 c4 G2 A2 B2 A2 d e d c B A  | 
w:   | 
A4 A4 A4 A4  | f g a b c' c' b a a g g ^3/4f ^2/4f f f e  | \
w:   |   | 
d3 c B A c d e3 d c B A2  | 
w:   | 
A2 d4 c B B B B A2 A4 A4 A4 A4 z4 z4 G F G c6 B A  | \
w:   | 
A4 z4 z4 |
w:   | 


